assets/features/payment-flow/BIDV.svg

<svg width="200" height="200" viewBox="0 0 200 200" fill="none" xmlns="http://www.w3.org/2000/svg">
<rect width="200" height="200" rx="40" fill="#006B68"/>
<path d="M161.251 104.011C159.578 101.412 157.512 99.0884 155.126 97.1239C147.685 90.5043 138.696 85.8656 128.989 83.636C128.654 83.5584 128.359 83.3596 128.162 83.0778C127.965 82.796 127.878 82.4512 127.92 82.1098C128.944 72.9523 127.787 63.6825 124.543 55.0576C123.074 55.7433 121.653 56.5272 120.289 57.4041H120.155C123.43 66.5104 124.175 76.334 122.311 85.83C122.272 86.0205 122.272 86.2168 122.309 86.4075C122.347 86.5982 122.422 86.7796 122.53 86.941C122.639 87.1025 122.778 87.241 122.94 87.3482C123.102 87.4555 123.284 87.5296 123.475 87.566C136.528 89.4528 148.445 96.0317 156.996 106.071C149.614 112.461 140.839 117.034 131.373 119.426C131.049 119.505 130.763 119.696 130.565 119.964C130.366 120.232 130.268 120.561 130.286 120.895C130.838 132.168 128.312 143.379 122.979 153.327C155.165 164.773 179.471 132.132 161.136 103.935" fill="#FFC62F"/>
<path d="M123.36 47.2358C112.056 52.2034 102.57 60.5553 96.2115 71.1401C96.0419 71.4413 95.7663 71.6686 95.4384 71.7779C95.1105 71.8872 94.7536 71.8707 94.4372 71.7315C86.0597 67.9478 76.911 66.1835 67.7272 66.5806C67.8853 68.2057 68.153 69.8182 68.5286 71.4072V71.5217C78.2022 71.2157 87.7771 73.5434 96.2306 78.2561C96.3996 78.3506 96.5856 78.4108 96.7779 78.4332C96.9702 78.4555 97.1651 78.4397 97.3513 78.3865C97.5374 78.3333 97.7112 78.2438 97.8627 78.1232C98.0142 78.0026 98.1403 77.8533 98.2338 77.6838C104.044 65.8093 113.98 56.4572 126.184 51.3756L126.871 53.0354C130.252 61.5714 131.673 70.7574 131.03 79.9159C131.006 80.2497 131.1 80.5814 131.295 80.8533C131.49 81.1252 131.774 81.32 132.098 81.4039C140.708 83.7434 148.708 87.922 155.546 93.6518C157.282 95.1589 158.98 96.7042 160.602 98.3831C163.091 95.1663 164.937 91.5002 166.039 87.5851C175.865 61.2197 148.678 36.3996 123.322 47.2358" fill="#FFC62F"/>
<path d="M115.806 144.055V143.864C115.386 143.597 114.972 143.318 114.565 143.025C107.147 137.607 101.237 130.383 97.3947 122.04C97.2292 121.698 96.9382 121.434 96.5827 121.303C96.2271 121.171 95.8344 121.182 95.4868 121.334C83.8342 127.495 70.329 129.178 57.5205 126.065C59.7408 116.555 64.1431 107.692 70.3794 100.176C70.6141 99.9141 70.7438 99.5745 70.7438 99.2226C70.7438 98.8706 70.6141 98.531 70.3794 98.2687C63.3196 89.4748 58.7943 78.9207 57.2915 67.7443V67.6299C53.9634 68.5835 50.8125 70.0719 47.9621 72.0368C16.9594 92.45 34.7597 134.421 70.2077 132.609C78.1953 132.614 86.1009 130.998 93.4455 127.858C93.7675 127.717 94.1302 127.699 94.4645 127.808C94.7988 127.917 95.0812 128.146 95.2579 128.45C99.7588 136.427 106.064 143.242 113.669 148.348C114.477 146.97 115.197 145.543 115.825 144.074" fill="#FFC62F"/>
<path d="M149.422 102.294C141.78 108.224 132.676 111.975 123.074 113.149C122.883 113.173 122.697 113.234 122.529 113.329C122.361 113.425 122.214 113.552 122.095 113.704C121.976 113.857 121.889 114.031 121.837 114.217C121.786 114.404 121.772 114.598 121.796 114.79C124.092 127.783 121.511 141.166 114.546 152.373L113.058 151.419C105.332 146.502 98.8119 139.91 93.9795 132.132C93.8023 131.849 93.5318 131.636 93.2148 131.532C92.8977 131.427 92.5541 131.437 92.2434 131.559C81.7026 135.554 70.2742 136.609 59.1802 134.612C57.5394 166.204 94.1512 182.516 115.691 158.497C125.078 148.348 128.474 132.265 127.31 118.739C127.288 118.39 127.391 118.045 127.601 117.765C127.81 117.485 128.113 117.289 128.454 117.213C137.467 115.338 145.916 111.378 153.123 105.652C152.01 104.454 150.818 103.333 149.555 102.294" fill="#FFC62F"/>
<path d="M116.187 40.8446C94.3038 16.8448 56.0703 35.789 60.115 67.3435C61.6477 78.8816 66.5372 89.715 74.1759 98.4974C74.4105 98.7597 74.5402 99.0993 74.5402 99.4513C74.5402 99.8032 74.4105 100.143 74.1759 100.405C68.0134 107.209 63.5195 115.354 61.0498 124.195C62.6154 124.547 64.2023 124.795 65.8003 124.939H65.9912C68.6857 115.622 73.8547 107.21 80.9487 100.596C81.0855 100.46 81.1939 100.297 81.2679 100.119C81.3419 99.9406 81.3801 99.7494 81.3801 99.5562C81.3801 99.3631 81.3419 99.1718 81.2679 98.9934C81.1939 98.815 81.0855 98.6529 80.9487 98.5165C80.1347 97.728 79.3525 96.9076 78.6021 96.0555C70.5328 87.1465 65.642 75.8157 64.6939 63.8332C74.4331 62.9883 84.2348 64.4389 93.3117 68.0685C93.6227 68.1974 93.9691 68.2127 94.2901 68.1115C94.6112 68.0103 94.8862 67.7992 95.0669 67.5152C101.239 58.0892 109.859 50.5187 120.003 45.614C118.882 43.9266 117.604 42.3488 116.187 40.9018" fill="#FFC62F"/>
</svg>

<svg xmlns="http://www.w3.org/2000/svg" width="200" height="200" fill="none" viewBox="0 0 200 200"><rect width="200" height="200" fill="#006b68" rx="40"/><path fill="#ffc62f" d="M161.251 104.011a29.9 29.9 0 0 0-6.125-6.887 59.3 59.3 0 0 0-26.137-13.488 1.393 1.393 0 0 1-1.069-1.526 58.4 58.4 0 0 0-3.377-27.052 36 36 0 0 0-4.254 2.346h-.134a53.53 53.53 0 0 1 2.156 28.426 1.48 1.48 0 0 0 .219 1.111 1.48 1.48 0 0 0 .945.625 54.22 54.22 0 0 1 33.521 18.505 62.6 62.6 0 0 1-25.623 13.355 1.43 1.43 0 0 0-1.087 1.469 62.2 62.2 0 0 1-7.307 32.432c32.186 11.446 56.492-21.195 38.157-49.392"/><path fill="#ffc62f" d="M123.36 47.236A59.7 59.7 0 0 0 96.212 71.14a1.393 1.393 0 0 1-1.775.591 58.7 58.7 0 0 0-26.71-5.15c.158 1.625.426 3.237.802 4.826v.115a53.4 53.4 0 0 1 27.702 6.734 1.47 1.47 0 0 0 2.003-.572 54.4 54.4 0 0 1 27.95-26.308l.687 1.66a61.3 61.3 0 0 1 4.159 26.88 1.43 1.43 0 0 0 1.068 1.488 61.7 61.7 0 0 1 23.448 12.248c1.736 1.507 3.434 3.052 5.056 4.731a31.7 31.7 0 0 0 5.437-10.798c9.826-26.365-17.361-51.185-42.717-40.35m-7.516 96.82v-.191a26 26 0 0 1-1.241-.839 53.9 53.9 0 0 1-17.17-20.985 1.465 1.465 0 0 0-1.908-.706 53.96 53.96 0 0 1-37.966 4.731 62.96 62.96 0 0 1 12.858-25.889 1.43 1.43 0 0 0 0-1.907 61.95 61.95 0 0 1-13.088-30.525v-.114a32 32 0 0 0-9.329 4.407C16.96 92.45 34.76 134.42 70.208 132.609a59 59 0 0 0 23.237-4.751 1.433 1.433 0 0 1 1.813.592 58.7 58.7 0 0 0 18.411 19.898 38 38 0 0 0 2.156-4.274"/><path fill="#ffc62f" d="M149.422 102.294a53.6 53.6 0 0 1-26.348 10.855 1.5 1.5 0 0 0-.545.18 1.5 1.5 0 0 0-.692.888 1.5 1.5 0 0 0-.041.573 53.55 53.55 0 0 1-7.25 37.583l-1.488-.954a61.05 61.05 0 0 1-19.079-19.287 1.43 1.43 0 0 0-1.736-.573 62.2 62.2 0 0 1-33.063 3.053c-1.64 31.592 34.971 47.904 56.511 23.885 9.387-10.149 12.783-26.232 11.619-39.758a1.47 1.47 0 0 1 1.144-1.526 58.96 58.96 0 0 0 24.669-11.561 37 37 0 0 0-3.568-3.358m-33.368-61.449c-21.883-24-60.117-5.056-56.072 26.499a59.4 59.4 0 0 0 14.06 31.153 1.43 1.43 0 0 1 0 1.908 59.14 59.14 0 0 0-13.125 23.79c1.565.352 3.152.6 4.75.744h.191a53.67 53.67 0 0 1 14.958-24.343 1.47 1.47 0 0 0 0-2.08 43 43 0 0 1-2.347-2.46 54.4 54.4 0 0 1-13.908-32.223c9.74-.845 19.54.606 28.618 4.236a1.43 1.43 0 0 0 1.755-.554 62.14 62.14 0 0 1 24.936-21.901 32 32 0 0 0-3.816-4.712"/></svg>
